www/assets/icons/extension_off.svg

<svg width="24" height="24" viewBox="0 0 24 24" xmlns="http://www.w3.org/2000/svg" fill='currentColor'><path d="M19.8349 22.5551L18.2049 20.9251C18.1549 20.9251 18.1049 20.9451 18.0549 20.9451H14.2549C14.2549 18.2351 12.0949 17.9451 11.5549 17.9451C11.0149 17.9451 8.85495 18.2351 8.85495 20.9451H5.05495C3.95495 20.9451 3.05495 20.0451 3.05495 18.9451V15.1451C5.76495 15.1451 6.05495 12.9851 6.05495 12.4451C6.05495 11.9051 5.75495 9.74507 3.06495 9.74507V5.94507C3.06495 5.89507 3.08495 5.85507 3.08495 5.80507L1.44495 4.16507L2.85495 2.75507L21.2349 21.1351L19.8349 22.5551ZM20.0549 17.1151V14.9451C21.4349 14.9451 22.5549 13.8251 22.5549 12.4451C22.5549 11.0651 21.4349 9.94507 20.0549 9.94507V5.94507C20.0549 4.84507 19.1549 3.94507 18.0549 3.94507H14.0549C14.0549 2.56507 12.9349 1.44507 11.5549 1.44507C10.1749 1.44507 9.05495 2.56507 9.05495 3.94507H6.88495L20.0549 17.1151Z"/></svg>

<svg xmlns="http://www.w3.org/2000/svg" width="24" height="24" viewBox="0 0 24 24" fill='currentColor'><path d="m19.835 22.555-1.63-1.63c-.05 0-.1.02-.15.02h-3.8c0-2.71-2.16-3-2.7-3s-2.7.29-2.7 3h-3.8c-1.1 0-2-.9-2-2v-3.8c2.71 0 3-2.16 3-2.7s-.3-2.7-2.99-2.7v-3.8c0-.05.02-.09.02-.14l-1.64-1.64 1.41-1.41 18.38 18.38zm.22-5.44v-2.17a2.5 2.5 0 0 0 0-5v-4c0-1.1-.9-2-2-2h-4a2.5 2.5 0 0 0-5 0h-2.17z"/></svg>
